X:0177
T:The Gardener's March.
T:Dainty Davie
N:only  vaguely related to the older Dainty Davie tune
N:no repeat marked after first part
M:C
L:1/8
Q:1/2=84
I: || ::
Z:Jack Campin * www.campin.me.uk * 2009
K:G
G2A2 B2c2|d2ed Tc4  |B2cB A4  | G2[G2G,2] D4 |
G2A2 B2c2|d2ed  c2dc|B2AG ABcB|TA4        G4||
e2c2 A4  |d2B2  G4  |c2B2 A2G2| FGAF      D4 |
G2A2 B2c2|d2ed  c2dc|B2AG ABcB|TA4        G4:|
<end>
<start>
